X: 1
T:Lemonville Jig
M:6/8
L:1/8
K:D
f2g|a3/2b/2a a3/2f/2d|f3/2g/2f fdA|ded dAF|
G3Gef|gag gec|efe ecA|cBA gfe|
f3f2g|]
[|aba afd|fgf fdA|ded def|B3e2f|
g3/2a/2g gec|efe ecA|cBA gfe|d3d2A|]
|:FGA ABc|ded def|gag gfe|B3Bed|
cea aed|cea aed|cea gfe|[1fdB A2G:|[2d3
